X: 935
T: The humors of Castle Bernard
C: anon.
O: Ireland
B: Francis O'Neill: "The Dance Music of Ireland" (1907) no. 935
R: Hornpipe
Z: Transcribed by Frank Nordberg - http://www.musicaviva.com
F: http://www.musicaviva.com/abc/tunes/ireland/oneill-1001/oneill-1001-093
5.abc
M: C|
L: 1/8
K: D
f>e|d>fA>d (3DFA d>f|a>fb>f a>gf>e|d>fA>d (3DFA d>f|(3efe (3dcB A>gf>e|
d>fA>d (3DFA d>f|a>fb>f a>gf>e|d>^de>f (3gec (3ABc|d2f2d2::A2|c>de>f ({a}
g)>ec>A|d>cd>e f>de>f|
({a}g)>fg>a b>ag>f|(3efd (3cdB A2A>B|c>de>f ({a}g)>ec>A|d>cd>e f>de>f|g>b
a>g (3fed (3edc|d2f2d2:|
W:
W:
W: From Musica Viva - http://www.musicaviva.com
W: the Internet center for free sheet music downloads.


